!!!!SEGMENT: pl-cz--iii-106--006_dankowski-adalbert--missa-e-benedcitus.krn
!!!cenid: 18xx:757
!!!COM: Dankowski, Adalbert
!!!COM-rismID: pe30000793
!!!CDT: ~1760-~1836
!!!CNT: Polish
!!!OPR: Missa E
!!!OTL: Benedcitus
!!!OMV: 006
!!!PDT:
!!!AGN: Sacred; Mass
!!!SMS-siglum: PL-CZ
!!!SMS-shelfmark: III-106
!!!SMS-shelfwork: 001-006 M
!!!SMS-variant:
!!!SMS-altvar:
!!!NIFC-rismSourceID: 300000111
!!!NIFC-islandoraID: pl-cz:34215
!!!URL-pdf-islandora: https://repozytorium.nifc.pl/islandora/object/pl-cz%3A34215/datastream/PDF/view
!!!URL-scan:
!!!ONB-nifc: UWAGA: części Mszy: Kyrie, Gloria, Patrem, Et resurrexit, Sanctus, Benedictus, Osanna, Agnus Dei, Dona nobis
!!!AIN: 1 alto 1 bass 2 cornt 1 organ 1 soprn 1 tenor 2 violn
!!!key: G
**kern	**fba	**dynam	**kern	**dynam	**kern	**dynam	**kern	**kern	**kern	**kern	**text	**kern	**kern
*part9	*part9	*part9	*part8	*part8	*part7	*part7	*part6	*part5	*part4	*part3	*part3	*part2	*part1
*staff9	*staff9	*	*staff8	*	*staff7	*	*staff6	*staff5	*staff4	*staff3	*staff3	*staff2	*staff1
*	*	*	*group3	*	*group3	*	*group2	*group2	*group2	*group2	*	*group1	*group1
*I"Organo	*	*	*I"Violino Secondo	*	*I"Violino Primo	*	*I"Baſso	*I"Tenore	*I"Alto	*I"Canto	*	*I"Clarino Secondo ex D:	*I"Clarino Primo ex D:
*I'org	*	*	*I'vl 2	*	*I'vl 1	*	*I'B	*I'T	*I'A	*I'S	*	*I'clno 2 ex D	*I'clno 1 ex D
*Iorgan	*	*	*Ivioln	*	*Ivioln	*	*Ibass	*Itenor	*Ialto	*Isoprn	*	*Icornt	*Icornt
*ICklav	*	*	*ICstr	*	*ICstr	*	*ICvox	*ICvox	*ICvox	*ICvox	*	*ICbras	*ICbras
*IGcont	*	*	*IGacmp	*	*IGacmp	*	*IGcoro	*IGcoro	*IGcoro	*IGcoro	*	*IGacmp	*IGacmp
*clefF4	*	*	*clefG2	*	*clefG2	*	*	*	*	*clefC1	*	*	*
*k[f#]	*	*	*k[f#]	*	*k[f#]	*	*	*	*	*k[f#]	*	*	*
*G:	*	*	*G:	*	*G:	*	*	*	*	*G:	*	*	*
*M2/4	*	*	*M2/4	*	*M2/4	*	*	*	*	*M2/4	*	*	*
=1	=1	=1	=1	=1	=1	=1	=1	=1	=1	=1	=1	=1	=1
!LO:TX:a:i:t=Solo	!	!	!LO:TX:a:i:t=Soli	!	!LO:TX:a:i:t=Solo	!	!	!	!	!LO:TX:b:t=16:color=grey	!	!	!
!LO:TX:a:Bi:t=Andan&colon;	!	!	!LO:TX:a:Bi:t=andan&colon;	!	!LO:TX:a:Bi:t=andan&colon;	!	!LO:TX:a:t=Benedic Tacet	!LO:TX:a:t=Bened&colon; Tacet	!LO:TX:a:t=Bened&colon; Tacet	!LO:TX:a:Bi:t=andan&colon;	!	!LO:TX:a:t=Benedictus Tacet	!LO:TX:a:t=Benedictus Tacet
8G\L	.	.	8B/L	.	4g/	.	2ryy	2ryy	2ryy	0r	.	2ryy	2ryy
8G\	.	.	8B/	.	.	.	.	.	.	.	.	.	.
8G\	.	.	8B/	.	16g/LL	.	.	.	.	.	.	.	.
.	.	.	.	.	16b/	.	.	.	.	.	.	.	.
8G\J	.	.	8B/J	.	16a/	.	.	.	.	.	.	.	.
.	.	.	.	.	16g/JJ	.	.	.	.	.	.	.	.
=2	=2	=2	=2	=2	=2	=2	=2	=2	=2	=2	=2	=2	=2
*2\right	*	*	*	*	*	*	*	*	*	*	*	*	*
*tremolo	*	*	*tremolo	*	*	*	*	*	*	*	*	*	*
8F#\L	6	.	8A/L	.	16dd\LL	.	2ryy	2ryy	2ryy	.	.	2ryy	2ryy
!	!	!	!	!	!LO:ACC:color=grey	!	!	!	!	!	!	!	!
.	.	.	.	.	16cc#X\	.	.	.	.	.	.	.	.
8F#\	.	.	8A/	.	16dd\	.	.	.	.	.	.	.	.
.	.	.	.	.	16ee\JJ	.	.	.	.	.	.	.	.
8F#\	.	.	8A/	.	4dd\	.	.	.	.	.	.	.	.
8F#\J	.	.	8A/J	.	.	.	.	.	.	.	.	.	.
*	*	*	*Xtremolo	*	*	*	*	*	*	*	*	*	*
=3	=3	=3	=3	=3	=3	=3	=3	=3	=3	=3	=3	=3	=3
8G\L	.	.	8B/L	.	8.gg\L	.	2ryy	2ryy	2ryy	.	.	2ryy	2ryy
8G\	.	.	8B/	.	.	.	.	.	.	.	.	.	.
.	.	.	.	.	16dd\Jk	.	.	.	.	.	.	.	.
8G\	.	.	8d/	.	16dd/LL	.	.	.	.	.	.	.	.
.	.	.	.	.	16b/	.	.	.	.	.	.	.	.
8G\J	.	.	8d/J	.	16b/	.	.	.	.	.	.	.	.
.	.	.	.	.	16g/JJ	.	.	.	.	.	.	.	.
*Xtremolo	*	*	*	*	*	*	*	*	*	*	*	*	*
=4	=4	=4	=4	=4	=4	=4	=4	=4	=4	=4	=4	=4	=4
8D\L	.	.	8f#/L	.	8.a/L	.	2ryy	2ryy	2ryy	.	.	2ryy	2ryy
8D\	.	.	8a/	.	.	.	.	.	.	.	.	.	.
.	.	.	.	.	32b/LL	.	.	.	.	.	.	.	.
.	.	.	.	.	32cc/JJJ	.	.	.	.	.	.	.	.
8G\J	.	.	8g/	.	8b/L	.	.	.	.	.	.	.	.
8r	.	.	8G/J	.	16g/L	.	.	.	.	.	.	.	.
.	.	.	.	.	16g/JJ	.	.	.	.	.	.	.	.
!	!	!	!	!	!LO:LB:g=original	!	!	!	!	!	!	!	!
=5	=5	=5	=5	=5	=5	=5	=5	=5	=5	=5	=5	=5	=5
8D\L	.	.	8A/L	.	16g/LL	.	2ryy	2ryy	2ryy	0r	.	2ryy	2ryy
.	.	.	.	.	16f#/JJ	.	.	.	.	.	.	.	.
8F#\	6 5	.	8a/J	.	16cc\LL	.	.	.	.	.	.	.	.
.	.	.	.	.	16cc\JJ	.	.	.	.	.	.	.	.
!	!	!	!LO:TX:t=P:problem=mixed beam	!	!	!	!	!	!	!	!	!	!
8G\	.	.	8d/L	.	16cc\LL	.	.	.	.	.	.	.	.
.	.	.	.	.	16b\	.	.	.	.	.	.	.	.
8B\J	6	.	8dd\J	.	16gg\	.	.	.	.	.	.	.	.
.	.	.	.	.	16gg\JJ	.	.	.	.	.	.	.	.
=6	=6	=6	=6	=6	=6	=6	=6	=6	=6	=6	=6	=6	=6
!LO:TX:t=P:problem=mixed beam	!	!	!	!	!LO:TX:t=P:problem=zbędne oznaczenie trioli, zapisano zgodnie z t. nr 22	!	!	!	!	!	!	!	!
8c\L	6	.	8ee\L	.	16gg\LL	.	2ryy	2ryy	2ryy	.	.	2ryy	2ryy
.	.	.	.	.	32ff#\	.	.	.	.	.	.	.	.
.	.	.	.	.	32gg\JJ	.	.	.	.	.	.	.	.
8c\	.	.	8ee\J	.	16aa\LL	.	.	.	.	.	.	.	.
.	.	.	.	.	16gg\JJ	.	.	.	.	.	.	.	.
8d\	.	.	16dd\LL	.	16ff#\LL	.	.	.	.	.	.	.	.
.	.	.	16cc\	.	16ee\	.	.	.	.	.	.	.	.
8D/J	.	.	16b\	.	16dd\	.	.	.	.	.	.	.	.
.	.	.	16a\JJ	.	16cc\JJ	.	.	.	.	.	.	.	.
!	!	!	!LO:LB:g=original	!	!	!	!	!	!	!	!	!	!
=7	=7	=7	=7	=7	=7	=7	=7	=7	=7	=7	=7	=7	=7
!LO:TX:t=P:problem=mixed beam	!	!	!	!	!	!	!	!	!	!	!	!	!
8G\L	.	.	8b/L	.	16b\LL	.	2ryy	2ryy	2ryy	.	.	2ryy	2ryy
.	.	.	.	.	16dd\	.	.	.	.	.	.	.	.
8GG/	.	.	8b/J	.	16gg\	.	.	.	.	.	.	.	.
.	.	.	.	.	16dd\JJ	.	.	.	.	.	.	.	.
8C/	6	.	16b/LL	.	16dd\LL	.	.	.	.	.	.	.	.
.	.	.	16a/	.	16cc\	.	.	.	.	.	.	.	.
8C#X/J	5	.	16a/	.	16cc\	.	.	.	.	.	.	.	.
.	.	.	16g/JJ	.	16b\JJ	.	.	.	.	.	.	.	.
!LO:LB:g=original	!	!	!	!	!	!	!	!	!	!	!	!	!
=8	=8	=8	=8	=8	=8	=8	=8	=8	=8	=8	=8	=8	=8
*	*	*	*Xtuplet	*	*Xtuplet	*	*	*	*	*	*	*	*
!LO:TX:t=P:problem=mixed beam	!	!	!	!	!	!	!	!	!	!	!	!	!
8D\L	4	.	24g/LL	.	24b/LL	.	2ryy	2ryy	2ryy	.	.	2ryy	2ryy
.	.	.	24f#/	.	24a/	.	.	.	.	.	.	.	.
.	.	.	24g/	.	24b/	.	.	.	.	.	.	.	.
8DD/J	3	.	8f#/JJ	.	8a/JJ	.	.	.	.	.	.	.	.
8Cn/L	4_ 2_	.	16d/LL	.	16dd\LL	.	.	.	.	.	.	.	.
.	.	.	16d/	.	16ee\	.	.	.	.	.	.	.	.
8C/J	.	.	16d/	.	16ff#\	.	.	.	.	.	.	.	.
.	.	.	16d/JJ	.	16aa\JJ	.	.	.	.	.	.	.	.
!	!	!	!	!	!LO:LB:g=original	!	!	!	!	!	!	!	!
=9	=9	=9	=9	=9	=9	=9	=9	=9	=9	=9	=9	=9	=9
*	*	*	*tremolo	*	*	*	*	*	*	*	*	*	*
8BB/L	6	.	16d/LL	.	16gg\LL	.	2ryy	2ryy	2ryy	0r	.	2ryy	2ryy
.	.	.	16d/	.	16dd\J	.	.	.	.	.	.	.	.
8BB/J	.	.	16d/	.	8dd\J	.	.	.	.	.	.	.	.
.	.	.	16d/JJ	.	.	.	.	.	.	.	.	.	.
8F#\L	6 5	.	16d/LL	.	16dd\LL	.	.	.	.	.	.	.	.
.	.	.	16d/	.	16cc\	.	.	.	.	.	.	.	.
8F#\J	.	.	16d/	.	16a\	.	.	.	.	.	.	.	.
.	.	.	16d/JJ	.	16cc\JJ	.	.	.	.	.	.	.	.
=10	=10	=10	=10	=10	=10	=10	=10	=10	=10	=10	=10	=10	=10
8G\L	.	.	16d/LL	.	16cc\LL	.	2ryy	2ryy	2ryy	.	.	2ryy	2ryy
.	.	.	16d/	.	16b\J	.	.	.	.	.	.	.	.
8G\	.	.	16d/	.	8b\J	.	.	.	.	.	.	.	.
.	.	.	16d/JJ	.	.	.	.	.	.	.	.	.	.
8c\	4_ 2_	.	16d/LL	.	16gg\LL	.	.	.	.	.	.	.	.
.	.	.	16d/	.	16ff#\	.	.	.	.	.	.	.	.
8c\J	.	.	16d/	.	16ff#\	.	.	.	.	.	.	.	.
.	.	.	16d/JJ	.	16aa\JJ	.	.	.	.	.	.	.	.
=11	=11	=11	=11	=11	=11	=11	=11	=11	=11	=11	=11	=11	=11
8B\L	6_	.	16d/LL	.	16gg\LL	.	2ryy	2ryy	2ryy	.	.	2ryy	2ryy
.	.	.	16d/	.	16dd\J	.	.	.	.	.	.	.	.
8B\	.	.	16d/	.	8dd\J	.	.	.	.	.	.	.	.
.	.	.	16d/JJ	.	.	.	.	.	.	.	.	.	.
8F#\	6_ 5_	.	16d/LL	.	16dd\LL	.	.	.	.	.	.	.	.
.	.	.	16d/	.	16cc\	.	.	.	.	.	.	.	.
8F#\J	.	.	16d/	.	16a\	.	.	.	.	.	.	.	.
.	.	.	16d/JJ	.	16cc\JJ	.	.	.	.	.	.	.	.
=12	=12	=12	=12	=12	=12	=12	=12	=12	=12	=12	=12	=12	=12
8G\L	x	.	16d/LL	.	16cc\LL	.	2ryy	2ryy	2ryy	.	.	2ryy	2ryy
.	.	.	16d/	.	16b\J	.	.	.	.	.	.	.	.
8G\	.	.	16d/	.	8b\J	.	.	.	.	.	.	.	.
.	.	.	16d/JJ	.	.	.	.	.	.	.	.	.	.
8c\	4_ 2_	.	16d/LL	.	16gg\LL	.	.	.	.	.	.	.	.
.	.	.	16d/	.	16ff#\	.	.	.	.	.	.	.	.
8c\J	.	.	16d/	.	16ff#\	.	.	.	.	.	.	.	.
.	.	.	16d/JJ	.	16aa\JJ	.	.	.	.	.	.	.	.
*	*	*	*Xtremolo	*	*	*	*	*	*	*	*	*	*
!	!	!	!LO:LB:g=original	!	!	!	!	!	!	!	!	!	!
=13	=13	=13	=13	=13	=13	=13	=13	=13	=13	=13	=13	=13	=13
8B\L	6	.	8d/L	.	8gg\L	.	2ryy	2ryy	2ryy	0r	.	2ryy	2ryy
8B\	.	.	8b/	.	32gg\LL	.	.	.	.	.	.	.	.
.	.	.	.	.	32ff#\	.	.	.	.	.	.	.	.
.	.	.	.	.	32ee\	.	.	.	.	.	.	.	.
.	.	.	.	.	32dd\JJJ	.	.	.	.	.	.	.	.
!	!	!	!	!	!LO:LB:g=original	!	!	!	!	!	!	!	!
8G\	.	.	8b/	.	8.dd\L	.	.	.	.	.	.	.	.
8G\J	.	.	8b/J	.	.	.	.	.	.	.	.	.	.
!	!	!	!	!	!LO:N:vis=8	!	!	!	!	!	!	!	!
.	.	.	.	.	16dd\Jk	.	.	.	.	.	.	.	.
=14	=14	=14	=14	=14	=14	=14	=14	=14	=14	=14	=14	=14	=14
*	*	*	*tremolo	*	*	*	*	*	*	*	*	*	*
8F#\L	6_ 5_	.	8a/L	.	8.dd\L	.	2ryy	2ryy	2ryy	.	.	2ryy	2ryy
8F#\	.	.	8a/	.	.	.	.	.	.	.	.	.	.
.	.	.	.	.	16ee\Jk	.	.	.	.	.	.	.	.
8F#\	.	.	8a/	.	16dd\LL	.	.	.	.	.	.	.	.
.	.	.	.	.	16ff#\	.	.	.	.	.	.	.	.
8F#\J	.	.	8a/J	.	16aa\	.	.	.	.	.	.	.	.
.	.	.	.	.	16cc\JJ	.	.	.	.	.	.	.	.
*	*	*	*Xtremolo	*	*	*	*	*	*	*	*	*	*
!LO:LB:g=original	!	!	!	!	!	!	!	!	!	!	!	!	!
=15	=15	=15	=15	=15	=15	=15	=15	=15	=15	=15	=15	=15	=15
!LO:TX:t=P:problem=mixed beam	!	!	!	!	!	!	!	!	!	!	!	!	!
8G\L	x	.	16g/LL	.	16b\LL	.	2ryy	2ryy	2ryy	.	.	2ryy	2ryy
.	.	.	16b/	.	16dd\	.	.	.	.	.	.	.	.
8C\	6	.	16cc/	.	16ee\	.	.	.	.	.	.	.	.
.	.	.	16a/JJ	.	16cc\JJ	.	.	.	.	.	.	.	.
8D\	4	.	8g/L	.	8b\L	.	.	.	.	.	.	.	.
8DD/J	3	.	8f#/J	.	8a\J	.	.	.	.	.	.	.	.
=16	=16	=16	=16	=16	=16	=16	=16	=16	=16	=16	=16	=16	=16
8GG/L	.	.	8g/L	.	8b\L	.	2ryy	2ryy	2ryy	.	.	2ryy	2ryy
8D/J	.	.	16b/L	.	16dd\L	.	.	.	.	.	.	.	.
.	.	.	16a/JJ	.	16cc\JJ	.	.	.	.	.	.	.	.
!	!	!LO:DY:a:t=pio&colon;	!	!	!	!	!	!	!	!	!	!	!
4GG/	.	p	4g/	.	4b\	.	.	.	.	.	.	.	.
=17	=17	=17	=17	=17	=17	=17	=17	=17	=17	=17	=17	=17	=17
!	!	!	!	!LO:DY:a	!	!LO:DY:a:rj	!	!	!	!LO:TX:a:i:t=Solo	!	!	!
8G\L	.	.	8B/L	p	4g/	p	2ryy	2ryy	2ryy	[4g\	Be-	2ryy	2ryy
8G\	.	.	8B/	.	.	.	.	.	.	.	.	.	.
8G\	.	.	8B/	.	16g/LL	.	.	.	.	16g\LL]	.	.	.
.	.	.	.	.	16b/	.	.	.	.	16b\JJ	.	.	.
8G\J	.	.	8B/J	.	16a/	.	.	.	.	16a\LL	-ne-	.	.
.	.	.	.	.	16g/JJ	.	.	.	.	16g\JJ	.	.	.
=18	=18	=18	=18	=18	=18	=18	=18	=18	=18	=18	=18	=18	=18
*tremolo	*	*	*tremolo	*	*	*	*	*	*	*	*	*	*
8F#\L	6	.	8A/L	.	16dd\LL	.	2ryy	2ryy	2ryy	16dd\LL	-dic-	2ryy	2ryy
.	.	.	.	.	16cc#X\	.	.	.	.	16cc\	.	.	.
8F#\	.	.	8A/	.	16dd\	.	.	.	.	16dd\	.	.	.
.	.	.	.	.	16ee\JJ	.	.	.	.	16ee\JJ	.	.	.
8F#\	.	.	8A/	.	4dd\	.	.	.	.	4dd\	-tus	.	.
8F#\J	.	.	8A/J	.	.	.	.	.	.	.	.	.	.
*	*	*	*Xtremolo	*	*	*	*	*	*	*	*	*	*
!	!	!	!	!	!LO:LB:g=original	!	!	!	!	!	!	!	!
=19	=19	=19	=19	=19	=19	=19	=19	=19	=19	=19	=19	=19	=19
8G\L	.	.	8B/L	.	8.gg\L	.	2ryy	2ryy	2ryy	8.gg\L	qui	2ryy	2ryy
8G\	.	.	8B/	.	.	.	.	.	.	.	.	.	.
.	.	.	.	.	16dd\Jk	.	.	.	.	16dd\Jk	.	.	.
8G\	.	.	8d/	.	16dd/LL	.	.	.	.	16dd\LL	ve-	.	.
.	.	.	.	.	16b/	.	.	.	.	16b\	.	.	.
8G\J	.	.	8d/J	.	16b/	.	.	.	.	16b\	.	.	.
.	.	.	.	.	16g/JJ	.	.	.	.	16g\JJ	.	.	.
*Xtremolo	*	*	*	*	*	*	*	*	*	*	*	*	*
!	!	!	!LO:LB:g=original	!	!	!	!	!	!	!LO:LB:g=original	!	!	!
=20	=20	=20	=20	=20	=20	=20	=20	=20	=20	=20	=20	=20	=20
8D\L	.	.	8f#/L	.	8.a/L	.	2ryy	2ryy	2ryy	8.a\L	.	2ryy	2ryy
8D\	.	.	8f#/	.	.	.	.	.	.	.	.	.	.
.	.	.	.	.	32b/LL	.	.	.	.	32b\LL	.	.	.
!	!	!	!	!	!LO:ACC:color=grey	!	!	!	!	!	!	!	!
.	.	.	.	.	32ccn/JJJ	.	.	.	.	32cc\JJJ	.	.	.
8G\J	.	.	8d/J	.	8b/L	.	.	.	.	8b\	-nit	.	.
!LO:TX:b:i:t=Verte	!	!	!	!	!	!	!	!	!	!	!	!	!
8r	.	.	8r	.	16g/L	.	.	.	.	16g\	be-	.	.
.	.	.	.	.	16g/JJ	.	.	.	.	16g\	-ne-	.	.
!LO:PB:g=original	!	!	!	!	!	!	!	!	!	!	!	!	!
=21	=21	=21	=21	=21	=21	=21	=21	=21	=21	=21	=21	=21	=21
8D\L	.	.	8A/L	.	16g/LL	.	2ryy	2ryy	2ryy	16g/LL	-dic-	2ryy	2ryy
.	.	.	.	.	16f#/JJ	.	.	.	.	16f#/JJ	.	.	.
8F#\	.	.	8a/J	.	16cc\LL	.	.	.	.	16cc\	-tus	.	.
.	.	.	.	.	16cc\JJ	.	.	.	.	16cc\	qui	.	.
!	!	!	!LO:TX:t=P:problem=mixed beam	!	!	!	!	!	!	!	!	!	!
8G\	.	.	8d/L	.	16cc\LL	.	.	.	.	16cc\LL	ve-	.	.
.	.	.	.	.	16b\	.	.	.	.	16b\JJ	.	.	.
8B\J	6	.	8dd\J	.	16gg\	.	.	.	.	16gg\	-nit	.	.
.	.	.	.	.	16gg\JJ	.	.	.	.	16gg\	in	.	.
=22	=22	=22	=22	=22	=22	=22	=22	=22	=22	=22	=22	=22	=22
!LO:TX:t=P:problem=mixed beam	!	!	!	!	!	!	!	!	!	!	!	!	!
8c\L	.	.	8ee\L	.	16gg\LL	.	2ryy	2ryy	2ryy	16gg\LL	no-	2ryy	2ryy
.	.	.	.	.	32ff#\L	.	.	.	.	32ff#\L	.	.	.
.	.	.	.	.	32gg\JJJ	.	.	.	.	32gg\JJJ	.	.	.
8c\	6 5	.	8ee\J	.	16aa\LL	.	.	.	.	16aa\LL	.	.	.
.	.	.	.	.	16gg\JJ	.	.	.	.	16gg\JJ	.	.	.
!	!	!	!	!	!	!	!	!	!	!LO:LB:g=original	!	!	!
8d\	.	.	16dd\LL	.	16ff#\LL	.	.	.	.	16ff#\LL	.	.	.
.	.	.	16cc\	.	16ee\	.	.	.	.	16ee\	.	.	.
8D/J	.	.	16b\	.	16dd\	.	.	.	.	16dd\	.	.	.
.	.	.	16a\JJ	.	16cc\JJ	.	.	.	.	16cc\JJ	.	.	.
!	!	!	!	!	!LO:LB:g=original	!	!	!	!	!	!	!	!
=23	=23	=23	=23	=23	=23	=23	=23	=23	=23	=23	=23	=23	=23
!LO:TX:t=P:problem=mixed beam	!	!	!	!	!	!	!	!	!	!	!	!	!
8G\L	.	.	8b\L	.	16b\LL	.	2ryy	2ryy	2ryy	16b\LL	.	2ryy	2ryy
.	.	.	.	.	16dd\	.	.	.	.	16dd\JJ	.	.	.
8GG/	.	.	8b\J	.	16gg\	.	.	.	.	16gg\	-mi-	.	.
.	.	.	.	.	16dd\JJ	.	.	.	.	16dd\	-ne	.	.
8C/	6	.	16b/LL	.	16dd\LL	.	.	.	.	16dd\LL	Do-	.	.
.	.	.	16a/	.	16cc\	.	.	.	.	16cc\JJ	.	.	.
8C#X/J	5	.	16a/	.	16cc\	.	.	.	.	16cc\LL	-mi-	.	.
.	.	.	16g/JJ	.	16b\JJ	.	.	.	.	16b\JJ	.	.	.
=24	=24	=24	=24	=24	=24	=24	=24	=24	=24	=24	=24	=24	=24
.	.	.	.	.	.	.	.	.	.	8qqb/	.	.	.
16D\LL	.	.	8f#/L	.	8a\L	.	2ryy	2ryy	2ryy	4a\	-ni	2ryy	2ryy
16d\	.	.	.	.	.	.	.	.	.	.	.	.	.
16A\	.	.	8dd 8f#/	.	8ff# 8a 8d\	.	.	.	.	.	.	.	.
16F#\JJ	.	.	.	.	.	.	.	.	.	.	.	.	.
8D\	.	.	8ddJ 8f#/	.	8ff#J 8a 8d\	.	.	.	.	4r	.	.	.
8r	.	.	8r	.	8r	.	.	.	.	.	.	.	.
=25	=25	=25	=25	=25	=25	=25	=25	=25	=25	=25	=25	=25	=25
8r	.	.	8r	.	4.dd\	.	2ryy	2ryy	2ryy	4.dd\	Be-	2ryy	2ryy
8G\L	.	.	8b\L	.	.	.	.	.	.	.	.	.	.
8G\	.	.	8b\	.	.	.	.	.	.	.	.	.	.
8G\J	.	.	8b\J	.	8dd\	.	.	.	.	8dd\	-ne-	.	.
!	!	!	!LO:LB:g=original	!	!	!	!	!	!	!LO:LB:g=original	!	!	!
=26	=26	=26	=26	=26	=26	=26	=26	=26	=26	=26	=26	=26	=26
8r	.	.	8r	.	16dd\LL	.	2ryy	2ryy	2ryy	16dd\LL	-dic-	2ryy	2ryy
.	.	.	.	.	16b\	.	.	.	.	16b\	.	.	.
8G\L	.	.	8d/L	.	16cc\	.	.	.	.	16cc\	.	.	.
.	.	.	.	.	16b\JJ	.	.	.	.	16b\JJ	.	.	.
8G\	.	.	8d/	.	8b\	.	.	.	.	8b\	-tus	.	.
8G\J	.	.	8d/J	.	8r	.	.	.	.	8r	.	.	.
!LO:LB:g=original	!	!	!	!	!	!	!	!	!	!	!	!	!
=27	=27	=27	=27	=27	=27	=27	=27	=27	=27	=27	=27	=27	=27
8r	.	.	8r	.	4.dd\	.	2ryy	2ryy	2ryy	4.dd\	Be-	2ryy	2ryy
8F#\L	6_	.	8a/L	.	.	.	.	.	.	.	.	.	.
8F#\	.	.	8a/	.	.	.	.	.	.	.	.	.	.
8F#\J	.	.	8a/J	.	8dd\	.	.	.	.	8dd\	-ne-	.	.
=28	=28	=28	=28	=28	=28	=28	=28	=28	=28	=28	=28	=28	=28
8r	.	.	8r	.	16dd\LL	.	2ryy	2ryy	2ryy	16dd\LL	-dic-	2ryy	2ryy
.	.	.	.	.	16a\	.	.	.	.	16a\	.	.	.
8F#\L	.	.	8d/L	.	16b\	.	.	.	.	16b\	.	.	.
.	.	.	.	.	16a\JJ	.	.	.	.	16a\JJ	.	.	.
!	!	!	!	!	!LO:LB:g=original	!	!	!	!	!	!	!	!
8F#\	.	.	8d/	.	8a/	.	.	.	.	8a\	-tus	.	.
8F#\J	.	.	8d/J	.	8r	.	.	.	.	8r	.	.	.
=29	=29	=29	=29	=29	=29	=29	=29	=29	=29	=29	=29	=29	=29
8r	.	.	8r	.	4.dd\	.	2ryy	2ryy	2ryy	4.dd\	Be-	2ryy	2ryy
8F#\L	.	.	8f#/L	.	.	.	.	.	.	.	.	.	.
8G\	.	.	8f#/	.	.	.	.	.	.	.	.	.	.
8A\J	x	.	8f#/J	.	8dd\	.	.	.	.	8dd\	-ne-	.	.
=30	=30	=30	=30	=30	=30	=30	=30	=30	=30	=30	=30	=30	=30
4B\	.	.	4f#/	.	16dd\LL	.	2ryy	2ryy	2ryy	16dd\LL	-dic-	2ryy	2ryy
.	.	.	.	.	16cc#X\	.	.	.	.	16cc#X\	.	.	.
.	.	.	.	.	16dd\	.	.	.	.	16dd\	.	.	.
.	.	.	.	.	16ee\JJ	.	.	.	.	16ee\JJ	.	.	.
!	!	!	!	!	!	!	!	!	!	!-tus	!	!	!
4r	.	.	4r	.	16ff#\LL	.	.	.	.	16ff#\LL	-tus	.	.
.	.	.	.	.	16ee\	.	.	.	.	16ee\JJ	.	.	.
.	.	.	.	.	16ff#\	.	.	.	.	16ff#\LL	qui	.	.
.	.	.	.	.	16gg\JJ	.	.	.	.	16gg\JJ	.	.	.
=31	=31	=31	=31	=31	=31	=31	=31	=31	=31	=31	=31	=31	=31
8r	.	.	8r	.	8.aa\L	.	2ryy	2ryy	2ryy	8.aa\L	ve-	2ryy	2ryy
8B\L	#_	.	8f#/L	.	.	.	.	.	.	.	.	.	.
.	.	.	.	.	16ff#\Jk	.	.	.	.	16ff#\Jk	.	.	.
8B\	.	.	8f#/	.	16ee\LL	.	.	.	.	8dd#X\	-nit	.	.
.	.	.	.	.	16dd#X\JJ	.	.	.	.	.	.	.	.
8B\J	.	.	8f#/J	.	16cc#X\LL	.	.	.	.	16cc#X\LL	in	.	.
.	.	.	.	.	16dd#\JJ	.	.	.	.	16dd#\JJ	.	.	.
=32	=32	=32	=32	=32	=32	=32	=32	=32	=32	=32	=32	=32	=32
8r	x	.	8r	.	16ee\LL	.	2ryy	2ryy	2ryy	16ee\LL	No-	2ryy	2ryy
!	!	!	!	!	!	!	!	!	!	!LO:SIC:v:s=16dd#\JJ	!	!	!
.	.	.	.	.	16dd#X\	.	.	.	.	16dd\JJ	.	.	.
8E\L	.	.	8b\L	.	16ee\	.	.	.	.	16ee\LL	-mi-	.	.
.	.	.	.	.	16ff#\JJ	.	.	.	.	16ff#\JJ	.	.	.
8E\	.	.	8b\	.	8gg\	.	.	.	.	8gg\	-ne	.	.
8E\J	.	.	8b\J	.	8r	.	.	.	.	8r	.	.	.
!	!	!	!LO:LB:g=original	!	!	!	!	!	!	!	!	!	!
=33	=33	=33	=33	=33	=33	=33	=33	=33	=33	=33	=33	=33	=33
8r	.	.	8r	.	8.gg\L	.	2ryy	2ryy	2ryy	8.gg\L	Ve-	2ryy	2ryy
8A\L	#_	.	8e/L	.	.	.	.	.	.	.	.	.	.
.	.	.	.	.	16ee\Jk	.	.	.	.	16ee\Jk	.	.	.
!	!	!	!	!	!LO:LB:g=original	!	!	!	!	!	!	!	!
.	.	.	.	.	8qdd/	.	.	.	.	8qdd/	.	.	.
8A\	.	.	8e/	.	8cc#X\L	.	.	.	.	8cc#X\	-nit	.	.
8A\J	.	.	8e/J	.	16b\L	.	.	.	.	16b\LL	in	.	.
.	.	.	.	.	16cc#\JJ	.	.	.	.	16cc#\JJ	.	.	.
!LO:LB:g=original	!	!	!	!	!	!	!	!	!	!LO:LB:g=original	!	!	!
=34	=34	=34	=34	=34	=34	=34	=34	=34	=34	=34	=34	=34	=34
8r	x	.	8r	.	16dd\LL	.	2ryy	2ryy	2ryy	16dd\LL	no-	2ryy	2ryy
!	!	!	!	!	!LO:SIC:v:s=16cc#\	!	!	!	!	!	!	!	!
.	.	.	.	.	16cc\	.	.	.	.	16cc#X\JJ	.	.	.
8D\L	.	.	8a/L	.	16dd\	.	.	.	.	16dd\LL	-mi-	.	.
.	.	.	.	.	16ee\JJ	.	.	.	.	16ee\JJ	.	.	.
8D\	.	.	8a/	.	8ff#\	.	.	.	.	8ff#\	-ne	.	.
8D\J	.	.	8a/J	.	8r	.	.	.	.	8r	.	.	.
=35	=35	=35	=35	=35	=35	=35	=35	=35	=35	=35	=35	=35	=35
8r	.	.	8r	.	8.aa\L	.	2ryy	2ryy	2ryy	8.aa\L	Ve-	2ryy	2ryy
8F#\L	6_	.	8a/L	.	.	.	.	.	.	.	.	.	.
.	.	.	.	.	16ff#\Jk	.	.	.	.	16ff#\Jk	.	.	.
8F#\	.	.	8a/	.	16ee\LL	.	.	.	.	16ee\LL	-nit	.	.
.	.	.	.	.	16dd\	.	.	.	.	16dd\JJ	.	.	.
8F#\J	.	.	8a/J	.	16cc#X\	.	.	.	.	16cc#X\LL	in	.	.
.	.	.	.	.	16dd\JJ	.	.	.	.	16dd\JJ	.	.	.
=36	=36	=36	=36	=36	=36	=36	=36	=36	=36	=36	=36	=36	=36
4G\	6	.	4b\	.	16ee\LL	.	2ryy	2ryy	2ryy	16ee\LL	no-	2ryy	2ryy
.	.	.	.	.	16dd\	.	.	.	.	16dd\	.	.	.
.	.	.	.	.	16ee\	.	.	.	.	16ee\	.	.	.
.	.	.	.	.	16ff#\JJ	.	.	.	.	16ff#\JJ	.	.	.
4r	.	.	4r	.	16gg\LL	.	.	.	.	16gg\LL	-mi-	.	.
.	.	.	.	.	16ff#\	.	.	.	.	16ff#\JJ	.	.	.
.	.	.	.	.	16ee\	.	.	.	.	16ee\LL	-ne	.	.
.	.	.	.	.	16dd\JJ	.	.	.	.	16dd\JJ	.	.	.
!	!	!	!	!	!	!	!	!	!	!LO:LB:g=original	!	!	!
=37	=37	=37	=37	=37	=37	=37	=37	=37	=37	=37	=37	=37	=37
*	*	*	*	*	*	*	*	*	*	*2\right	*	*	*
8A\L	4	.	16f#/LL	.	16dd\LL	.	2ryy	2ryy	2ryy	2a\	Do-	2ryy	2ryy
.	.	.	16f#/	.	16dd\	.	.	.	.	.	.	.	.
8A\	.	.	16f#/	.	16dd\	.	.	.	.	.	.	.	.
.	.	.	16f#/JJ	.	16dd\JJ	.	.	.	.	.	.	.	.
*	*	*	*tremolo	*	*tremolo	*	*	*	*	*	*	*	*
8A\	.	.	16f#/LL	.	16dd\LL	.	.	.	.	.	.	.	.
.	.	.	16f#/	.	16dd\	.	.	.	.	.	.	.	.
8A\J	.	.	16f#/	.	16dd\	.	.	.	.	.	.	.	.
.	.	.	16f#/JJ	.	16dd\JJ	.	.	.	.	.	.	.	.
*	*	*	*	*	*Xtremolo	*	*	*	*	*	*	*	*
!	!	!	!	!	!LO:LB:g=original	!	!	!	!	!	!	!	!
=38	=38	=38	=38	=38	=38	=38	=38	=38	=38	=38	=38	=38	=38
8AA/L	#	.	16g/LL	.	16cc\LL	.	2ryy	2ryy	2ryy	4.ee\	.	2ryy	2ryy
.	.	.	16g/	.	16cc\	.	.	.	.	.	.	.	.
8AA/	.	.	16g/	.	16cc\	.	.	.	.	.	.	.	.
.	.	.	16g/JJ	.	16cc\JJ	.	.	.	.	.	.	.	.
*	*	*	*	*	*tremolo	*	*	*	*	*	*	*	*
8AA/	.	.	16g/LL	.	16cc\LL	.	.	.	.	.	.	.	.
.	.	.	16g/	.	16cc\	.	.	.	.	.	.	.	.
8AA/J	.	.	16g/	.	16cc\	.	.	.	.	8ee\	-mi-	.	.
.	.	.	16g/JJ	.	16cc\JJ	.	.	.	.	.	.	.	.
*	*	*	*Xtremolo	*	*Xtremolo	*	*	*	*	*	*	*	*
=39	=39	=39	=39	=39	=39	=39	=39	=39	=39	=39	=39	=39	=39
!	!	!	!	!LO:DY:a:t=for	!	!LO:DY:a:t=for.	!	!	!	!	!	!	!
8D\L	.	.	16f#/LL	f	16dd\LL	f	2ryy	2ryy	2ryy	4dd\	-ni	2ryy	2ryy
.	.	.	16A/	.	16a\J	.	.	.	.	.	.	.	.
8D\	.	.	16A/	.	8a\J	.	.	.	.	.	.	.	.
.	.	.	16A/JJ	.	.	.	.	.	.	.	.	.	.
*	*	*	*tremolo	*	*	*	*	*	*	*	*	*	*
8C#X\	6_ 5_	.	16A/LL	.	16a/LL	.	.	.	.	4r	.	.	.
.	.	.	16A/	.	16g/	.	.	.	.	.	.	.	.
8C#\J	.	.	16A/	.	16e/	.	.	.	.	.	.	.	.
.	.	.	16A/JJ	.	16g/JJ	.	.	.	.	.	.	.	.
*	*	*	*Xtremolo	*	*	*	*	*	*	*	*	*	*
!	!	!	!LO:LB:g=original	!	!	!	!	!	!	!	!	!	!
=40	=40	=40	=40	=40	=40	=40	=40	=40	=40	=40	=40	=40	=40
!	!	!	!	!	!	!	!	!	!	!LO:TX:b:t=7:color=grey	!	!	!
8D\L	x	.	16A/LL	.	16g/LL	.	2ryy	2ryy	2ryy	0r	.	2ryy	2ryy
.	.	.	16A/	.	16f#/J	.	.	.	.	.	.	.	.
8D\	.	.	16A/	.	8f#/J	.	.	.	.	.	.	.	.
.	.	.	16A/JJ	.	.	.	.	.	.	.	.	.	.
*	*	*	*tremolo	*	*	*	*	*	*	*	*	*	*
8G\	r#4_ 2_	.	16A/LL	.	16dd\LL	.	.	.	.	.	.	.	.
.	.	.	16A/	.	16cc#X\	.	.	.	.	.	.	.	.
8G\J	.	.	16A/	.	16cc#\	.	.	.	.	.	.	.	.
.	.	.	16A/JJ	.	16ee\JJ	.	.	.	.	.	.	.	.
!LO:LB:g=original	!	!	!	!	!	!	!	!	!	!	!	!	!
=41	=41	=41	=41	=41	=41	=41	=41	=41	=41	=41	=41	=41	=41
8F#\L	6	.	16A/LL	.	16dd\LL	.	2ryy	2ryy	2ryy	.	.	2ryy	2ryy
.	.	.	16A/	.	16a\J	.	.	.	.	.	.	.	.
8F#\	.	.	16A/	.	8a\J	.	.	.	.	.	.	.	.
.	.	.	16A/JJ	.	.	.	.	.	.	.	.	.	.
8C#X\	6_ 5_	.	16A/LL	.	16a/LL	.	.	.	.	.	.	.	.
.	.	.	16A/	.	16g/	.	.	.	.	.	.	.	.
8C#\J	.	.	16A/	.	16e/	.	.	.	.	.	.	.	.
.	.	.	16A/JJ	.	16g/JJ	.	.	.	.	.	.	.	.
=42	=42	=42	=42	=42	=42	=42	=42	=42	=42	=42	=42	=42	=42
8D\L	x	.	16A/LL	.	16g/LL	.	2ryy	2ryy	2ryy	.	.	2ryy	2ryy
.	.	.	16A/	.	16f#/J	.	.	.	.	.	.	.	.
8D\	.	.	16A/	.	8f#/J	.	.	.	.	.	.	.	.
.	.	.	16A/JJ	.	.	.	.	.	.	.	.	.	.
!	!	!	!	!	!LO:LB:g=original	!	!	!	!	!	!	!	!
8G\	r#4_ 2_	.	16A/LL	.	16dd\LL	.	.	.	.	.	.	.	.
.	.	.	16A/	.	16cc#X\	.	.	.	.	.	.	.	.
8G\J	.	.	16A/	.	16cc#\	.	.	.	.	.	.	.	.
.	.	.	16A/JJ	.	16ee\JJ	.	.	.	.	.	.	.	.
*	*	*	*Xtremolo	*	*	*	*	*	*	*	*	*	*
=43	=43	=43	=43	=43	=43	=43	=43	=43	=43	=43	=43	=43	=43
8F#\L	6_	.	8A/L	.	8dd\L	.	2ryy	2ryy	2ryy	.	.	2ryy	2ryy
8D\	.	.	8f#/	.	32dd\LL	.	.	.	.	.	.	.	.
.	.	.	.	.	32cc#X\	.	.	.	.	.	.	.	.
.	.	.	.	.	32b\	.	.	.	.	.	.	.	.
.	.	.	.	.	32a\JJJ	.	.	.	.	.	.	.	.
8D\	.	.	8f#/	.	8a/L	.	.	.	.	.	.	.	.
8D\J	.	.	8f#/J	.	8a/J	.	.	.	.	.	.	.	.
=44	=44	=44	=44	=44	=44	=44	=44	=44	=44	=44	=44	=44	=44
*tremolo	*	*	*tremolo	*	*	*	*	*	*	*	*	*	*
8C#X/L	6 5	.	8e/L	.	8.a/L	.	2ryy	2ryy	2ryy	1r	.	2ryy	2ryy
8C#/	.	.	8e/	.	.	.	.	.	.	.	.	.	.
.	.	.	.	.	16b/Jk	.	.	.	.	.	.	.	.
8C#/	.	.	8e/	.	16a\LL	.	.	.	.	.	.	.	.
.	.	.	.	.	16cc#X\	.	.	.	.	.	.	.	.
8C#/J	.	.	8e/J	.	16ee\	.	.	.	.	.	.	.	.
.	.	.	.	.	16gn\JJ	.	.	.	.	.	.	.	.
*Xtremolo	*	*	*Xtremolo	*	*	*	*	*	*	*	*	*	*
=45	=45	=45	=45	=45	=45	=45	=45	=45	=45	=45	=45	=45	=45
!LO:TX:t=P:problem=mixed beam	!	!	!	!	!LO:TX:t=P:problem=mixed beam	!	!	!	!	!	!	!	!
8D\L	.	.	16f#/LL	.	16f#/LL	.	2ryy	2ryy	2ryy	.	.	2ryy	2ryy
.	.	.	16a/	.	16ff#\	.	.	.	.	.	.	.	.
8G\	6	.	16b/	.	16gg\	.	.	.	.	.	.	.	.
.	.	.	16g/JJ	.	16ee\JJ	.	.	.	.	.	.	.	.
8A\	4	.	8f#/L	.	8dd\L	.	.	.	.	.	.	.	.
8AA/J	#	.	8e/J	.	8cc#X\J	.	.	.	.	.	.	.	.
=46	=46	=46	=46	=46	=46	=46	=46	=46	=46	=46	=46	=46	=46
!	!	!	!	!	!	!	!	!	!	!LO:TX:b:i:t=Verte	!	!	!
8D\L	.	.	8f#/L	.	8dd\L	.	2ryy	2ryy	2ryy	2r	.	2ryy	2ryy
8A\J	.	.	16f#/L	.	16a\L	.	.	.	.	.	.	.	.
.	.	.	16e/JJ	.	16g\JJ	.	.	.	.	.	.	.	.
!	!	!LO:DY:a:t=pio&colon;	!	!	!	!	!	!	!	!	!	!	!
4D\	.	p	4d/	.	4f#/	.	.	.	.	.	.	.	.
!	!	!	!LO:LB:g=original	!	!LO:LB:g=original	!	!	!	!	!	!	!	!
=47	=47	=47	=47	=47	=47	=47	=47	=47	=47	=47	=47	=47	=47
!	!	!	!	!LO:DY:a	!	!LO:DY:a:rj	!	!	!	!LO:TX:t=P:problem=przy kluczu błędnie f#c#	!	!	!
8D\L	.	.	8f#/L	p	4dd\	p	2ryy	2ryy	2ryy	[4dd\	Be-	2ryy	2ryy
8D\	.	.	8f#/	.	.	.	.	.	.	.	.	.	.
8D\	.	.	8f#/	.	16dd\LL	.	.	.	.	16dd\LL]	.	.	.
.	.	.	.	.	16ff#\	.	.	.	.	16ff#\JJ	.	.	.
8D\J	.	.	8f#/J	.	16ee\	.	.	.	.	16ee\LL	-ne-	.	.
.	.	.	.	.	16dd\JJ	.	.	.	.	16dd\JJ	.	.	.
!LO:LB:g=original	!	!	!	!	!	!	!	!	!	!	!	!	!
=48	=48	=48	=48	=48	=48	=48	=48	=48	=48	=48	=48	=48	=48
*	*	*	*tremolo	*	*	*	*	*	*	*	*	*	*
8C#X/L	6_	.	8e/L	.	16aa\LL	.	2ryy	2ryy	2ryy	16aa\LL	-dic-	2ryy	2ryy
!	!	!	!	!	!LO:ACC:color=grey	!	!	!	!	!	!	!	!
.	.	.	.	.	16gg#\	.	.	.	.	16gg\	.	.	.
8C#/	.	.	8e/	.	16aa\	.	.	.	.	16aa\	.	.	.
.	.	.	.	.	16bb\JJ	.	.	.	.	16bb\JJ	.	.	.
8C#/	.	.	8e/	.	4aa\	.	.	.	.	4aa\	-tus	.	.
8C#/J	.	.	8e/J	.	.	.	.	.	.	.	.	.	.
*	*	*	*Xtremolo	*	*	*	*	*	*	*	*	*	*
=49	=49	=49	=49	=49	=49	=49	=49	=49	=49	=49	=49	=49	=49
8D\L	x	.	8f#/L	.	8.ddd\L	.	2ryy	2ryy	2ryy	8.dd\L	qui	2ryy	2ryy
8D\	.	.	8f#/	.	.	.	.	.	.	.	.	.	.
.	.	.	.	.	16aa\Jk	.	.	.	.	16aa\Jk	.	.	.
8D\	.	.	8a/	.	16aa\LL	.	.	.	.	16aa\LL	ve-	.	.
.	.	.	.	.	16ff#\	.	.	.	.	16ff#\	.	.	.
8D\J	.	.	8a/J	.	16ff#\	.	.	.	.	16ff#\	.	.	.
.	.	.	.	.	16dd\JJ	.	.	.	.	16dd\JJ	.	.	.
=50	=50	=50	=50	=50	=50	=50	=50	=50	=50	=50	=50	=50	=50
!LO:TX:t=P:problem=mixed beam	!	!	!	!	!	!	!	!	!	!	!	!	!
8A\L	#	.	8c#X/L	.	8.ee\L	.	2ryy	2ryy	2ryy	8.ee\L	.	2ryy	2ryy
8AA/J	.	.	8c#/	.	.	.	.	.	.	.	.	.	.
.	.	.	.	.	32ff#\LL	.	.	.	.	32ff#\LL	.	.	.
.	.	.	.	.	32gg\JJJ	.	.	.	.	32gg\JJJ	.	.	.
!	!	!	!	!	!LO:TX:t=P:problem=mixed beam	!	!	!	!	!	!	!	!
8D\L	.	.	8A/	.	8ff#\L	.	.	.	.	8ff#\	-nit	.	.
8F#\J	6	.	8d/J	.	8a/J	.	.	.	.	8a\	in	.	.
!	!	!	!	!	!	!	!	!	!	!LO:LB:g=original	!	!	!
=51	=51	=51	=51	=51	=51	=51	=51	=51	=51	=51	=51	=51	=51
!LO:TX:t=P:problem=mixed beam	!	!	!	!	!	!	!	!	!	!	!	!	!
8G\L	6_	.	8g/L	.	8b\L	.	2ryy	2ryy	2ryy	8.b\L	no-	2ryy	2ryy
8G\	.	.	8b/J	.	16ee\L	.	.	.	.	.	.	.	.
!	!	!	!	!	!LO:ACC:color=grey	!	!	!	!	!	!	!	!
.	.	.	.	.	16ggn\JJ	.	.	.	.	16gg\Jk	.	.	.
8A\	#	.	16a/LL	.	16ff#\LL	.	.	.	.	16ff#\LL	-mi-	.	.
.	.	.	16g/	.	16ee\	.	.	.	.	16ee\JJ	.	.	.
8AA/J	.	.	16f#/	.	16dd\	.	.	.	.	16dd\LL	-ne	.	.
.	.	.	16e/JJ	.	16cc#X\JJ	.	.	.	.	16cc#X\JJ	.	.	.
!	!	!	!	!	!LO:LB:g=original	!	!	!	!	!	!	!	!
=52	=52	=52	=52	=52	=52	=52	=52	=52	=52	=52	=52	=52	=52
!	!	!	!	!	!	!LO:DY:a:t=f&colon;	!	!	!	!	!	!	!
16D\LL	.	.	8f#/L	.	8dd\L	f	2ryy	2ryy	2ryy	16dd\	Do-	2ryy	2ryy
16d\	.	.	.	.	.	.	.	.	.	16dd\	-mi-	.	.
16A\	.	.	8dd 8f#/	.	8ff# 8a 8d\	.	.	.	.	8dd\	-ni	.	.
16F#\JJ	.	.	.	.	.	.	.	.	.	.	.	.	.
8D\	.	.	8ddJ 8f#/	.	8ff#J 8a 8d\	.	.	.	.	4r	.	.	.
8r	.	.	8r	.	8r	.	.	.	.	.	.	.	.
=53	=53	=53	=53	=53	=53	=53	=53	=53	=53	=53	=53	=53	=53
*	*	*	*tremolo	*	*	*	*	*	*	*	*	*	*
!	!	!	!	!	!	!LO:DY:a	!	!	!	!	!	!	!
8d\L	3_	.	8f#/L	.	4dd\	p	2ryy	2ryy	2ryy	[4dd\	Be-	2ryy	2ryy
8d\	.	.	8f#/	.	.	.	.	.	.	.	.	.	.
8cn\	.	.	8f#/	.	16dd\LL	.	.	.	.	16dd\LL]	.	.	.
.	.	.	.	.	16cc#X\	.	.	.	.	16cc#X\JJ	.	.	.
8c\J	.	.	8f#/J	.	16dd\	.	.	.	.	16dd\LL	-ne-	.	.
.	.	.	.	.	16cc#\JJ	.	.	.	.	16cc#\JJ	.	.	.
*	*	*	*Xtremolo	*	*	*	*	*	*	*	*	*	*
!LO:LB:g=original	!	!	!LO:LB:g=original	!	!	!	!	!	!	!	!	!	!
=54	=54	=54	=54	=54	=54	=54	=54	=54	=54	=54	=54	=54	=54
8B\L	.	.	8f#/L	.	4dd\	.	2ryy	2ryy	2ryy	4dd\	-dic-	2ryy	2ryy
8B\	.	.	8f#/	.	.	.	.	.	.	.	.	.	.
8A\	.	.	8f#/	.	16dd\LL	.	.	.	.	16dd\LL	-tus	.	.
!	!	!	!	!	!LO:SIC:v:s=16cc#\	!	!	!	!	!LO:SIC:v:s=16cc#\JJ	!	!	!
.	.	.	.	.	16cc\	.	.	.	.	16cc\JJ	.	.	.
8A\J	.	.	8f#/J	.	16dd\	.	.	.	.	16dd\LL	qui	.	.
!	!	!	!	!	!LO:SIC:v:s=16cc#\JJ	!	!	!	!	!LO:SIC:v:s=16cc#\JJ	!	!	!
.	.	.	.	.	16cc\JJ	.	.	.	.	16cc\JJ	.	.	.
!	!	!	!	!	!	!	!	!	!	!LO:LB:g=original	!	!	!
=55	=55	=55	=55	=55	=55	=55	=55	=55	=55	=55	=55	=55	=55
*tremolo	*	*	*tremolo	*	*	*	*	*	*	*	*	*	*
8G#X\L	6 5	.	8e/L	.	4dd\	.	2ryy	2ryy	2ryy	4dd\	ve-	2ryy	2ryy
8G#\	.	.	8e/	.	.	.	.	.	.	.	.	.	.
8G#\	.	.	8e/	.	16dd\LL	.	.	.	.	16dd\LL	-nit	.	.
!	!	!	!	!	!LO:SIC:v:s=32cc#\L	!	!	!	!	!LO:SIC:v:s=32cc#\L	!	!	!
.	.	.	.	.	32cc\L	.	.	.	.	32cc\L	.	.	.
.	.	.	.	.	32dd\JJJ	.	.	.	.	32dd\JJJ	.	.	.
8G#\J	.	.	8e/J	.	16ee\LL	.	.	.	.	16ee\LL	qui	.	.
.	.	.	.	.	16dd\JJ	.	.	.	.	16dd\JJ	.	.	.
*Xtremolo	*	*	*Xtremolo	*	*	*	*	*	*	*	*	*	*
=56	=56	=56	=56	=56	=56	=56	=56	=56	=56	=56	=56	=56	=56
!LO:TX:t=P:problem=mixed beam	!	!	!	!	!	!	!	!	!	!	!	!	!
8A\L	n_	.	8e/L	.	16dd\LL	.	2ryy	2ryy	2ryy	16dd\LL	ve-	2ryy	2ryy
.	.	.	.	.	16ccn\J	.	.	.	.	16ccn\JJ	.	.	.
8AA/	.	.	8e/	.	8cc\J	.	.	.	.	8cc\	-nit	.	.
8A\J	.	.	8e/J	.	8r	.	.	.	.	8r	.	.	.
*	*	*	*	*	*	*	*	*	*	*	*ij	*	*
8r	x	.	8r	.	16a\LL	.	.	.	.	16a\LL	qui	.	.
.	.	.	.	.	16b\JJ	.	.	.	.	16b\JJ	.	.	.
!	!	!	!	!	!LO:LB:g=original	!	!	!	!	!	!	!	!
=57	=57	=57	=57	=57	=57	=57	=57	=57	=57	=57	=57	=57	=57
*	*	*	*tremolo	*	*	*	*	*	*	*	*	*	*
8c\L	3_	.	8e/L	.	4cc\	.	2ryy	2ryy	2ryy	4cc\	ve-	2ryy	2ryy
8c\	.	.	8e/	.	.	.	.	.	.	.	.	.	.
8B\	.	.	8e/	.	16cc\LL	.	.	.	.	16cc\LL	-nit	.	.
.	.	.	.	.	16b\	.	.	.	.	16b\JJ	.	.	.
8B\J	.	.	8e/J	.	16cc\	.	.	.	.	16cc\LL	qui	.	.
.	.	.	.	.	16b\JJ	.	.	.	.	16b\JJ	.	.	.
=58	=58	=58	=58	=58	=58	=58	=58	=58	=58	=58	=58	=58	=58
8A\L	.	.	8e/L	.	4cc\	.	2ryy	2ryy	2ryy	4cc\	ve-	2ryy	2ryy
8A\	.	.	8e/	.	.	.	.	.	.	.	.	.	.
8G\	.	.	8e/	.	16cc\LL	.	.	.	.	16cc\LL	-nit	.	.
*	*	*	*	*	*	*	*	*	*	*	*Xij	*	*
.	.	.	.	.	16b\	.	.	.	.	16b\JJ	.	.	.
8G\J	.	.	8e/J	.	16cc\	.	.	.	.	16cc\LL	in	.	.
.	.	.	.	.	16b\JJ	.	.	.	.	16b\JJ	.	.	.
!	!	!	!	!	!	!	!	!	!	!LO:LB:g=original	!	!	!
=59	=59	=59	=59	=59	=59	=59	=59	=59	=59	=59	=59	=59	=59
*tremolo	*	*	*	*	*	*	*	*	*	*	*	*	*
8F#\L	6 5	.	8d/L	.	4cc\	.	2ryy	2ryy	2ryy	4cc\	no-	2ryy	2ryy
8F#\	.	.	8d/	.	.	.	.	.	.	.	.	.	.
8F#\	.	.	8d/	.	16cc\LL	.	.	.	.	16cc\LL	-mi-	.	.
.	.	.	.	.	32b\L	.	.	.	.	32b\L	.	.	.
.	.	.	.	.	32cc\JJJ	.	.	.	.	32cc\JJJ	.	.	.
8F#\J	.	.	8d/J	.	16dd\LL	.	.	.	.	16dd\LL	-ne	.	.
.	.	.	.	.	16cc\JJ	.	.	.	.	16cc\JJ	.	.	.
*Xtremolo	*	*	*Xtremolo	*	*	*	*	*	*	*	*	*	*
=60	=60	=60	=60	=60	=60	=60	=60	=60	=60	=60	=60	=60	=60
!LO:TX:t=P:problem=mixed beam	!	!	!	!	!	!	!	!	!	!	!	!	!
8G\L	.	.	8d/L	.	16cc\LL	.	2ryy	2ryy	2ryy	16cc\	Do-	2ryy	2ryy
.	.	.	.	.	16b\J	.	.	.	.	16b\	-mi-	.	.
8GG/	.	.	8d/	.	8b\J	.	.	.	.	8b\	-ni	.	.
8G\J	.	.	8d/J	.	8r	.	.	.	.	8r	.	.	.
8r	.	.	8r	.	8dd\	.	.	.	.	16dd\	Be-	.	.
.	.	.	.	.	.	.	.	.	.	16dd\	-ne-	.	.
!LO:LB:g=original	!	!	!	!	!LO:PB:g=original	!	!	!	!	!	!	!	!
=61	=61	=61	=61	=61	=61	=61	=61	=61	=61	=61	=61	=61	=61
8r	.	.	8r	.	32dd\LLL	.	2ryy	2ryy	2ryy	32dd\LLL	-dic-	2ryy	2ryy
.	.	.	.	.	32cc\	.	.	.	.	32cc\	.	.	.
.	.	.	.	.	32b\	.	.	.	.	32b\	.	.	.
.	.	.	.	.	32cc\JJJ	.	.	.	.	32cc\JJJ	.	.	.
8G\L	.	.	8d/L	.	4b\	.	.	.	.	4b\	-tus	.	.
8G\	.	.	8d/	.	.	.	.	.	.	.	.	.	.
8G\J	.	.	8d/J	.	16b\LL	.	.	.	.	16b\LL	qui	.	.
.	.	.	.	.	16dd\JJ	.	.	.	.	16dd\JJ	.	.	.
!	!	!	!	!	!	!	!	!	!	!LO:LB:g=original	!	!	!
=62	=62	=62	=62	=62	=62	=62	=62	=62	=62	=62	=62	=62	=62
8r	.	.	8r	.	32dd\LLL	.	2ryy	2ryy	2ryy	32dd\LLL	ve-	2ryy	2ryy
.	.	.	.	.	32cc\	.	.	.	.	32cc\	.	.	.
.	.	.	.	.	32b\	.	.	.	.	32b\	.	.	.
.	.	.	.	.	32cc\JJJ	.	.	.	.	32cc\JJJ	.	.	.
8F#\L	6_	.	8d/L	.	4a/	.	.	.	.	4a\	-nit	.	.
8F#\	.	.	8d/	.	.	.	.	.	.	.	.	.	.
8F#\J	.	.	8d/J	.	16a/LL	.	.	.	.	16a\LL	in	.	.
.	.	.	.	.	16cc/JJ	.	.	.	.	16cc\JJ	.	.	.
!	!	!	!LO:LB:g=original	!	!	!	!	!	!	!	!	!	!
=63	=63	=63	=63	=63	=63	=63	=63	=63	=63	=63	=63	=63	=63
*	*	*	*	*	*	*	*	*	*	*Xtuplet	*	*	*
!LO:TX:t=P:problem=mixed beam	!	!	!	!	!	!	!	!	!	!	!	!	!
8G\L	s	.	16g/LL	.	16b\LL	.	2ryy	2ryy	2ryy	24b\LL	no-	2ryy	2ryy
.	.	.	.	.	.	.	.	.	.	24cc\	.	.	.
.	.	.	16b/	.	16dd\	.	.	.	.	.	.	.	.
.	.	.	.	.	.	.	.	.	.	24dd\JJ	.	.	.
8c\	6	.	16cc/	.	16ee\	.	.	.	.	16ee\	-mi-	.	.
.	.	.	16a/JJ	.	16cc\JJ	.	.	.	.	16cc\	-ne	.	.
8d\	4	.	8g/L	.	8b/L	.	.	.	.	8b\	Do-	.	.
8D/J	3	.	8f#/J	.	8a/J	.	.	.	.	8a\	-mi-	.	.
=64	=64	=64	=64	=64	=64	=64	=64	=64	=64	=64	=64	=64	=64
!LO:TX:t=P:problem=mixed beam	!	!	!	!LO:DY:a	!	!LO:DY:a:t=f.	!	!	!	!	!	!	!
16G\LL	.	.	8g/L	f	8b\L	f	2ryy	2ryy	2ryy	4b\	-ni	2ryy	2ryy
16GG/	.	.	.	.	.	.	.	.	.	.	.	.	.
16BB/	.	.	8b 8d/	.	8gg 8b 8d\	.	.	.	.	.	.	.	.
16D/JJ	.	.	.	.	.	.	.	.	.	.	.	.	.
!LO:TX:t=P:problem=mixed beam	!	!	!	!	!	!	!	!	!	!	!	!	!
8G\L	.	.	8bJ 8d/	.	8ggJ 8b 8d\	.	.	.	.	4r	.	.	.
!	!	!	!LO:TX:b:i:t=Verte	!	!	!	!	!	!	!	!	!	!
8GG/J	.	.	8r	.	8r	.	.	.	.	.	.	.	.
!	!	!	!LO:PB:g=original	!	!LO:LB:g=original	!	!	!	!	!LO:LB:g=original	!	!	!
=65	=65	=65	=65	=65	=65	=65	=65	=65	=65	=65	=65	=65	=65
!	!	!	!	!	!	!LO:DY:a:rj	!	!	!	!	!	!	!
8r	.	.	8r	.	4.gg\	p	2ryy	2ryy	2ryy	4.gg\	Be-	2ryy	2ryy
8c\L	.	.	8e/L	.	.	.	.	.	.	.	.	.	.
8c\	.	.	8e/	.	.	.	.	.	.	.	.	.	.
8c\J	.	.	8e/J	.	8gg\	.	.	.	.	8gg\	-ne-	.	.
!	!	!	!	!	!	!	!	!	!	!LO:LB:g=original	!	!	!
=66	=66	=66	=66	=66	=66	=66	=66	=66	=66	=66	=66	=66	=66
8r	.	.	8r	.	16gg\LL	.	2ryy	2ryy	2ryy	16gg\LL	-dic-	2ryy	2ryy
.	.	.	.	.	16ee\	.	.	.	.	16ee\	.	.	.
8c\L	.	.	8g/L	.	16ffn\	.	.	.	.	16ffn\	.	.	.
.	.	.	.	.	16ee\JJ	.	.	.	.	16ee\JJ	.	.	.
8c\	.	.	8g/	.	8ee\	.	.	.	.	8ee\	-tus	.	.
8c\J	.	.	8g/J	.	8r	.	.	.	.	8r	.	.	.
!LO:LB:g=original	!	!	!	!	!	!	!	!	!	!	!	!	!
=67	=67	=67	=67	=67	=67	=67	=67	=67	=67	=67	=67	=67	=67
8r	.	.	8r	.	4.gg\	.	2ryy	2ryy	2ryy	4.gg\	Be-	2ryy	2ryy
8B\L	6_	.	8d/L	.	.	.	.	.	.	.	.	.	.
8B\	.	.	8d/	.	.	.	.	.	.	.	.	.	.
8B\J	.	.	8d/J	.	8gg\	.	.	.	.	8gg\	-ne-	.	.
=68	=68	=68	=68	=68	=68	=68	=68	=68	=68	=68	=68	=68	=68
8r	.	.	8r	.	16gg\LL	.	2ryy	2ryy	2ryy	16gg\LL	-dic-	2ryy	2ryy
.	.	.	.	.	16dd\	.	.	.	.	16dd\	.	.	.
8B\L	.	.	8g/L	.	16ee\	.	.	.	.	16ee\	.	.	.
.	.	.	.	.	16dd\JJ	.	.	.	.	16dd\JJ	.	.	.
8B\	.	.	8g/	.	8dd\	.	.	.	.	8dd\	-tus	.	.
8B\J	.	.	8g/J	.	8r	.	.	.	.	8r	.	.	.
=69	=69	=69	=69	=69	=69	=69	=69	=69	=69	=69	=69	=69	=69
8r	.	.	8r	.	4.gg\	.	2ryy	2ryy	2ryy	4.gg\	Be-	2ryy	2ryy
8BB/L	.	.	8B/L	.	.	.	.	.	.	.	.	.	.
8C/	.	.	8B/	.	.	.	.	.	.	.	.	.	.
8D/J	.	.	8B/J	.	8gg\	.	.	.	.	8gg\	-ne-	.	.
=70	=70	=70	=70	=70	=70	=70	=70	=70	=70	=70	=70	=70	=70
4E\	.	.	4B/	.	16g/LL	.	2ryy	2ryy	2ryy	16g\LL	-dic-	2ryy	2ryy
.	.	.	.	.	16f#/	.	.	.	.	16f#\	.	.	.
.	.	.	.	.	16g/	.	.	.	.	16g\	.	.	.
.	.	.	.	.	16a/JJ	.	.	.	.	16a\JJ	.	.	.
!	!	!	!	!	!LO:LB:g=original	!	!	!	!	!LO:LB:g=original	!	!	!
4r	x	.	4r	.	16b\LL	.	.	.	.	16b\LL	-tus	.	.
.	.	.	.	.	16a\	.	.	.	.	16a\JJ	.	.	.
.	.	.	.	.	16b\	.	.	.	.	16b\LL	qui	.	.
.	.	.	.	.	16cc\JJ	.	.	.	.	16cc\JJ	.	.	.
=71	=71	=71	=71	=71	=71	=71	=71	=71	=71	=71	=71	=71	=71
8r	.	.	8r	.	8.dd\L	.	2ryy	2ryy	2ryy	8.dd\L	ve-	2ryy	2ryy
8E\L	#	.	8B/L	.	.	.	.	.	.	.	.	.	.
.	.	.	.	.	16b\Jk	.	.	.	.	16b\Jk	.	.	.
.	.	.	.	.	.	.	.	.	.	8qa/	.	.	.
8E\	.	.	8B/	.	16a/LL	.	.	.	.	8g#X\	-nit	.	.
.	.	.	.	.	16g#X/	.	.	.	.	.	.	.	.
8E\J	.	.	8B/J	.	16f#/	.	.	.	.	16f#\LL	in	.	.
.	.	.	.	.	16g#/JJ	.	.	.	.	16g#\JJ	.	.	.
!	!	!	!LO:LB:g=original	!	!	!	!	!	!	!	!	!	!
=72	=72	=72	=72	=72	=72	=72	=72	=72	=72	=72	=72	=72	=72
8r	.	.	8r	.	16a/LL	.	2ryy	2ryy	2ryy	16a\LL	no-	2ryy	2ryy
!	!	!	!	!	!LO:SIC:v:s=16g#/	!	!	!	!	!LO:SIC:v:s=16g#/JJ	!	!	!
.	.	.	.	.	16g/	.	.	.	.	16g\JJ	.	.	.
8AA/L	.	.	8e/L	.	16a/	.	.	.	.	16a\LL	-mi-	.	.
.	.	.	.	.	16b/JJ	.	.	.	.	16b\JJ	.	.	.
8AA/	.	.	8e/	.	8cc\	.	.	.	.	8cc\	-ne	.	.
8AA/J	.	.	8e/J	.	8r	.	.	.	.	8r	.	.	.
=73	=73	=73	=73	=73	=73	=73	=73	=73	=73	=73	=73	=73	=73
8r	.	.	8r	.	8.cc\L	.	2ryy	2ryy	2ryy	8.cc\L	Ve-	2ryy	2ryy
8D\L	.	.	8A/L	.	.	.	.	.	.	.	.	.	.
.	.	.	.	.	16a\Jk	.	.	.	.	16a\Jk	.	.	.
.	.	.	.	.	.	.	.	.	.	8qqg/	.	.	.
8D\	.	.	8A/	.	16g/LL	.	.	.	.	8f#/	-nit	.	.
.	.	.	.	.	16f#/	.	.	.	.	.	.	.	.
8D\J	.	.	8A/J	.	16e/	.	.	.	.	16e/LL	in	.	.
.	.	.	.	.	16f#/JJ	.	.	.	.	16f#/JJ	.	.	.
!LO:LB:g=original	!	!	!	!	!	!	!	!	!	!LO:LB:g=original	!	!	!
=74	=74	=74	=74	=74	=74	=74	=74	=74	=74	=74	=74	=74	=74
8r	.	.	8r	.	16g/LL	.	2ryy	2ryy	2ryy	16g\LL	no-	2ryy	2ryy
.	.	.	.	.	16f#/	.	.	.	.	16f#\JJ	.	.	.
8GG/L	.	.	8d/L	.	16g/	.	.	.	.	16g\LL	-mi-	.	.
.	.	.	.	.	16a/JJ	.	.	.	.	16a\JJ	.	.	.
8GG/	.	.	8d/	.	8b/	.	.	.	.	8b\	-ne	.	.
8GG/J	.	.	8d/J	.	8r	.	.	.	.	8r	.	.	.
!	!	!	!	!	!LO:LB:g=original	!	!	!	!	!	!	!	!
=75	=75	=75	=75	=75	=75	=75	=75	=75	=75	=75	=75	=75	=75
8r	.	.	8r	.	8.dd\L	.	2ryy	2ryy	2ryy	8.dd\L	in	2ryy	2ryy
8BB/L	6	.	8d/L	.	.	.	.	.	.	.	.	.	.
.	.	.	.	.	16b\Jk	.	.	.	.	16b\Jk	.	.	.
8BB/	.	.	8d/	.	16a/LL	.	.	.	.	16a\LL	no-	.	.
.	.	.	.	.	16g/	.	.	.	.	16g\	.	.	.
8BB/J	.	.	8d/J	.	16f#/	.	.	.	.	16f#\	.	.	.
.	.	.	.	.	16g/JJ	.	.	.	.	16g\JJ	.	.	.
=76	=76	=76	=76	=76	=76	=76	=76	=76	=76	=76	=76	=76	=76
4C/	6	.	4e/	.	16a/LL	.	2ryy	2ryy	2ryy	16a\LL	.	2ryy	2ryy
.	.	.	.	.	16g/	.	.	.	.	16g\	.	.	.
.	.	.	.	.	16a/	.	.	.	.	16a\	.	.	.
.	.	.	.	.	16b/JJ	.	.	.	.	16b\JJ	.	.	.
4r	.	.	4r	.	16cc/LL	.	.	.	.	16cc\LL	-mi-	.	.
.	.	.	.	.	16b/	.	.	.	.	16b\JJ	.	.	.
.	.	.	.	.	16a/	.	.	.	.	16a\LL	-ne	.	.
.	.	.	.	.	16g/JJ	.	.	.	.	16g\JJ	.	.	.
=77	=77	=77	=77	=77	=77	=77	=77	=77	=77	=77	=77	=77	=77
!	!	!	!	!	!LO:TX:t=P:problem=mixed beam	!	!	!	!	!	!	!	!
8D\L	4	.	16b\LL	.	16d/LL	.	2ryy	2ryy	2ryy	2d/	Do-	2ryy	2ryy
.	.	.	16b\	.	16gg\	.	.	.	.	.	.	.	.
8D\	.	.	16b\	.	16gg\	.	.	.	.	.	.	.	.
.	.	.	16b\JJ	.	16gg\JJ	.	.	.	.	.	.	.	.
*	*	*	*tremolo	*	*tremolo	*	*	*	*	*	*	*	*
8D\	.	.	16b\LL	.	16gg\LL	.	.	.	.	.	.	.	.
.	.	.	16b\	.	16gg\	.	.	.	.	.	.	.	.
8D\J	.	.	16b\	.	16gg\	.	.	.	.	.	.	.	.
.	.	.	16b\JJ	.	16gg\JJ	.	.	.	.	.	.	.	.
!	!	!	!	!	!	!	!	!	!	!LO:LB:g=original	!	!	!
=78	=78	=78	=78	=78	=78	=78	=78	=78	=78	=78	=78	=78	=78
*tremolo	*	*	*	*	*	*	*	*	*	*	*	*	*
8DD/L	3	.	16cc\LL	.	16ff#\LL	.	2ryy	2ryy	2ryy	4.a\	.	2ryy	2ryy
.	.	.	16cc\	.	16ff#\	.	.	.	.	.	.	.	.
8DD/	.	.	16cc\	.	16ff#\	.	.	.	.	.	.	.	.
.	.	.	16cc\JJ	.	16ff#\JJ	.	.	.	.	.	.	.	.
8DD/	.	.	16cc\LL	.	16ff#\LL	.	.	.	.	.	.	.	.
.	.	.	16cc\	.	16ff#\	.	.	.	.	.	.	.	.
8DD/J	.	.	16cc\	.	16ff#\	.	.	.	.	8a\	-mi-	.	.
.	.	.	16cc\JJ	.	16ff#\JJ	.	.	.	.	.	.	.	.
*Xtremolo	*	*	*Xtremolo	*	*Xtremolo	*	*	*	*	*	*	*	*
!	!	!	!LO:LB:g=original	!	!	!	!	!	!	!	!	!	!
=79	=79	=79	=79	=79	=79	=79	=79	=79	=79	=79	=79	=79	=79
!LO:TX:t=P:problem=mixed beam	!	!LO:DY:a	!	!LO:DY:a:t=f&colon;	!	!LO:DY:a:t=for	!	!	!	!	!	!	!
8GG/L	.	f	8b\	f	8gg\	f	2ryy	2ryy	2ryy	4g\	-ni	2ryy	2ryy
32G\LL	.	.	4b\	.	4gg\	.	.	.	.	.	.	.	.
32F#\	.	.	.	.	.	.	.	.	.	.	.	.	.
32G\	.	.	.	.	.	.	.	.	.	.	.	.	.
32A\JJJ	.	.	.	.	.	.	.	.	.	.	.	.	.
16B\LL	.	.	.	.	.	.	.	.	.	4r	.	.	.
16G\	.	.	.	.	.	.	.	.	.	.	.	.	.
16B\	.	.	[<8b\	.	[<8gg\	.	.	.	.	.	.	.	.
16G\JJ	.	.	.	.	.	.	.	.	.	.	.	.	.
!	!	!	!	!	!LO:LB:g=original	!	!	!	!	!	!	!	!
=80	=80	=80	=80	=80	=80	=80	=80	=80	=80	=80	=80	=80	=80
!	!	!	!	!	!LO:TX:a:t=P:problem=brak zakończenia ligatury	!	!	!	!	!	!	!	!
8E\L	.	.	8b\]	.	8gg\]	.	2ryy	2ryy	2ryy	1r	.	2ryy	2ryy
32E\LL	.	.	4b\	.	4gg\	.	.	.	.	.	.	.	.
32D\	.	.	.	.	.	.	.	.	.	.	.	.	.
32E\	.	.	.	.	.	.	.	.	.	.	.	.	.
32F#\JJJ	.	.	.	.	.	.	.	.	.	.	.	.	.
!LO:LB:g=original	!	!	!	!	!	!	!	!	!	!	!	!	!
16G\LL	.	.	.	.	.	.	.	.	.	.	.	.	.
16E\	.	.	.	.	.	.	.	.	.	.	.	.	.
16G\	.	.	[<8b\	.	[<8gg\	.	.	.	.	.	.	.	.
16E\JJ	.	.	.	.	.	.	.	.	.	.	.	.	.
=81	=81	=81	=81	=81	=81	=81	=81	=81	=81	=81	=81	=81	=81
8C/L	.	.	8b\]	.	8gg\]	.	2ryy	2ryy	2ryy	.	.	2ryy	2ryy
32C/LL	.	.	4b\	.	4gg\	.	.	.	.	.	.	.	.
32BB/	.	.	.	.	.	.	.	.	.	.	.	.	.
32C/	.	.	.	.	.	.	.	.	.	.	.	.	.
32D/JJJ	.	.	.	.	.	.	.	.	.	.	.	.	.
16E/LL	.	.	.	.	.	.	.	.	.	.	.	.	.
16D/	.	.	.	.	.	.	.	.	.	.	.	.	.
16C/	.	.	8b\	.	8gg\	.	.	.	.	.	.	.	.
16C#X/JJ	.	.	.	.	.	.	.	.	.	.	.	.	.
=82	=82	=82	=82	=82	=82	=82	=82	=82	=82	=82	=82	=82	=82
2D;\	.	.	4b\	.	4gg\	.	2ryy	2ryy	2ryy	8.g;\L	Do-	2ryy	2ryy
.	.	.	.	.	.	.	.	.	.	16a\Jk	.	.	.
!	!	!	!	!	!	!	!	!	!	!LO:TX:a:B:t=t	!	!	!
.	.	.	4r;	.	4r;	.	.	.	.	8.a\	.	.	.
.	.	.	.	.	.	.	.	.	.	16a\	-mi-	.	.
=83	=83	=83	=83	=83	=83	=83	=83	=83	=83	=83	=83	=83	=83
8G\L	.	.	8B/L	.	4g/	.	2ryy	2ryy	2ryy	4g\	-ni	2ryy	2ryy
8G\	.	.	8B/	.	.	.	.	.	.	.	.	.	.
8G\	.	.	8B/	.	16g/LL	.	.	.	.	4r	.	.	.
.	.	.	.	.	16b/	.	.	.	.	.	.	.	.
8G\J	.	.	8B/J	.	16a/	.	.	.	.	.	.	.	.
.	.	.	.	.	16g/JJ	.	.	.	.	.	.	.	.
=84	=84	=84	=84	=84	=84	=84	=84	=84	=84	=84	=84	=84	=84
*tremolo	*	*	*tremolo	*	*	*	*	*	*	*	*	*	*
!	!	!	!	!	!	!	!	!	!	!LO:TX:a:t=15:color=grey	!	!	!
8F#\L	6	.	8A/L	.	16dd\LL	.	2ryy	2ryy	2ryy	0r	.	2ryy	2ryy
!	!	!	!	!	!LO:ACC:color=grey	!	!	!	!	!	!	!	!
.	.	.	.	.	16cc#X\	.	.	.	.	.	.	.	.
8F#\	.	.	8A/	.	16dd\	.	.	.	.	.	.	.	.
.	.	.	.	.	16ee\JJ	.	.	.	.	.	.	.	.
8F#\	.	.	8A/	.	4dd\	.	.	.	.	.	.	.	.
8F#\J	.	.	8A/J	.	.	.	.	.	.	.	.	.	.
*	*	*	*Xtremolo	*	*	*	*	*	*	*	*	*	*
=85	=85	=85	=85	=85	=85	=85	=85	=85	=85	=85	=85	=85	=85
8G\L	.	.	8B/L	.	8.gg\L	.	2ryy	2ryy	2ryy	.	.	2ryy	2ryy
8G\	.	.	8B/	.	.	.	.	.	.	.	.	.	.
.	.	.	.	.	16dd\Jk	.	.	.	.	.	.	.	.
8G\	.	.	8d/	.	16dd/LL	.	.	.	.	.	.	.	.
.	.	.	.	.	16b/	.	.	.	.	.	.	.	.
8G\J	.	.	8d/J	.	16b/	.	.	.	.	.	.	.	.
.	.	.	.	.	16g/JJ	.	.	.	.	.	.	.	.
*Xtremolo	*	*	*	*	*	*	*	*	*	*	*	*	*
!	!	!	!LO:LB:g=original	!	!LO:LB:g=original	!	!	!	!	!	!	!	!
=86	=86	=86	=86	=86	=86	=86	=86	=86	=86	=86	=86	=86	=86
8D\L	.	.	8f#/L	.	8.a/L	.	2ryy	2ryy	2ryy	.	.	2ryy	2ryy
8D\	.	.	8a/	.	.	.	.	.	.	.	.	.	.
.	.	.	.	.	32b/LL	.	.	.	.	.	.	.	.
.	.	.	.	.	32cc/JJJ	.	.	.	.	.	.	.	.
8G\J	.	.	8g/	.	8b/L	.	.	.	.	.	.	.	.
8r	.	.	8B/J	.	16g/L	.	.	.	.	.	.	.	.
.	.	.	.	.	16g/JJ	.	.	.	.	.	.	.	.
!LO:LB:g=original	!	!	!	!	!	!	!	!	!	!	!	!	!
=87	=87	=87	=87	=87	=87	=87	=87	=87	=87	=87	=87	=87	=87
8D\L	.	.	8A/L	.	16g/LL	.	2ryy	2ryy	2ryy	.	.	2ryy	2ryy
.	.	.	.	.	16f#/JJ	.	.	.	.	.	.	.	.
8F#\	.	.	8a/J	.	16cc\LL	.	.	.	.	.	.	.	.
.	.	.	.	.	16cc\JJ	.	.	.	.	.	.	.	.
!	!	!	!LO:TX:t=P:problem=mixed beam	!	!	!	!	!	!	!	!	!	!
8G\	.	.	8d/L	.	16cc\LL	.	.	.	.	.	.	.	.
.	.	.	.	.	16b\	.	.	.	.	.	.	.	.
8B\J	6	.	8dd\J	.	16gg\	.	.	.	.	.	.	.	.
.	.	.	.	.	16gg\JJ	.	.	.	.	.	.	.	.
=88	=88	=88	=88	=88	=88	=88	=88	=88	=88	=88	=88	=88	=88
!LO:TX:t=P:problem=mixed beam	!	!	!	!	!	!	!	!	!	!	!	!	!
8c\L	5	.	8ee\L	.	16gg\LL	.	2ryy	2ryy	2ryy	0r	.	2ryy	2ryy
.	.	.	.	.	32ff#\L	.	.	.	.	.	.	.	.
.	.	.	.	.	32gg\JJJ	.	.	.	.	.	.	.	.
8c\	6	.	8ee\J	.	16aa\LL	.	.	.	.	.	.	.	.
.	5	.	.	.	16gg\JJ	.	.	.	.	.	.	.	.
8d\	.	.	16dd\LL	.	16ff#\LL	.	.	.	.	.	.	.	.
.	.	.	16cc\	.	16ee\	.	.	.	.	.	.	.	.
8D/J	.	.	16b\	.	16dd\	.	.	.	.	.	.	.	.
.	.	.	16a\JJ	.	16cc\JJ	.	.	.	.	.	.	.	.
=89	=89	=89	=89	=89	=89	=89	=89	=89	=89	=89	=89	=89	=89
!LO:TX:t=P:problem=mixed beam	!	!	!	!	!	!	!	!	!	!	!	!	!
8G\L	.	.	8b\L	.	16b\LL	.	2ryy	2ryy	2ryy	.	.	2ryy	2ryy
.	.	.	.	.	16dd\	.	.	.	.	.	.	.	.
8GG/	.	.	8b\J	.	16gg\	.	.	.	.	.	.	.	.
.	.	.	.	.	16dd\JJ	.	.	.	.	.	.	.	.
8C/	6	.	16b/LL	.	16dd\LL	.	.	.	.	.	.	.	.
.	.	.	16a/	.	16cc\	.	.	.	.	.	.	.	.
8C#X/J	5	.	16a/	.	16cc\	.	.	.	.	.	.	.	.
.	.	.	16g/JJ	.	16b\JJ	.	.	.	.	.	.	.	.
!	!	!	!	!	!LO:LB:g=original	!	!	!	!	!	!	!	!
=90	=90	=90	=90	=90	=90	=90	=90	=90	=90	=90	=90	=90	=90
*	*	*	*tuplet	*	*	*	*	*	*	*	*	*	*
!LO:TX:t=P:problem=mixed beam	!	!	!LO:TUP:b:problem=klamra łukowa, łuczek zamiast numeru	!	!	!	!	!	!	!	!	!	!
8D\L	4	.	24g/LL	.	24b/LL	.	2ryy	2ryy	2ryy	.	.	2ryy	2ryy
.	.	.	24f#/	.	24a/	.	.	.	.	.	.	.	.
.	.	.	24g/J	.	24b/J	.	.	.	.	.	.	.	.
8DD/J	3_	.	8f#/J	.	8a/J	.	.	.	.	.	.	.	.
8D/L	.	.	16d/LL	.	8.ff#\L	.	.	.	.	.	.	.	.
.	.	.	16d/	.	.	.	.	.	.	.	.	.	.
8Cn/J	.	.	16d/	.	.	.	.	.	.	.	.	.	.
.	.	.	16d/JJ	.	16aa\Jk	.	.	.	.	.	.	.	.
!	!	!	!LO:LB:g=original	!	!	!	!	!	!	!	!	!	!
=91	=91	=91	=91	=91	=91	=91	=91	=91	=91	=91	=91	=91	=91
8BB/L	6	.	16d/LL	.	16gg\LL	.	2ryy	2ryy	2ryy	.	.	2ryy	2ryy
.	.	.	16d/	.	16dd\J	.	.	.	.	.	.	.	.
8BB/J	.	.	16d/	.	8dd\J	.	.	.	.	.	.	.	.
.	.	.	16d/JJ	.	.	.	.	.	.	.	.	.	.
*	*	*	*tremolo	*	*	*	*	*	*	*	*	*	*
8F#\L	6 5	.	16d/LL	.	16dd\LL	.	.	.	.	.	.	.	.
.	.	.	16d/	.	16cc\	.	.	.	.	.	.	.	.
8F#\J	.	.	16d/	.	16a\	.	.	.	.	.	.	.	.
.	.	.	16d/JJ	.	16cc\JJ	.	.	.	.	.	.	.	.
=92	=92	=92	=92	=92	=92	=92	=92	=92	=92	=92	=92	=92	=92
8G\L	.	.	16d/LL	.	16cc\LL	.	2ryy	2ryy	2ryy	0r	.	2ryy	2ryy
.	.	.	16d/	.	16b\J	.	.	.	.	.	.	.	.
8G\	.	.	16d/	.	8b\J	.	.	.	.	.	.	.	.
.	.	.	16d/JJ	.	.	.	.	.	.	.	.	.	.
8c\	4_ 2_	.	16d/LL	.	16gg\LL	.	.	.	.	.	.	.	.
.	.	.	16d/	.	16ff#\	.	.	.	.	.	.	.	.
8c\J	.	.	16d/	.	16ff#\	.	.	.	.	.	.	.	.
.	.	.	16d/JJ	.	16aa\JJ	.	.	.	.	.	.	.	.
=93	=93	=93	=93	=93	=93	=93	=93	=93	=93	=93	=93	=93	=93
8B\L	6	.	16d/LL	.	16gg\LL	.	2ryy	2ryy	2ryy	.	.	2ryy	2ryy
.	.	.	16d/	.	16dd\J	.	.	.	.	.	.	.	.
8B\	.	.	16d/	.	8dd\J	.	.	.	.	.	.	.	.
.	.	.	16d/JJ	.	.	.	.	.	.	.	.	.	.
8F#\	6 5	.	16d/LL	.	16dd\LL	.	.	.	.	.	.	.	.
.	.	.	16d/	.	16cc\	.	.	.	.	.	.	.	.
8F#\J	.	.	16d/	.	16a\	.	.	.	.	.	.	.	.
.	.	.	16d/JJ	.	16cc\JJ	.	.	.	.	.	.	.	.
!LO:LB:g=original	!	!	!	!	!	!	!	!	!	!	!	!	!
=94	=94	=94	=94	=94	=94	=94	=94	=94	=94	=94	=94	=94	=94
8G\L	.	.	16d/LL	.	16cc\LL	.	2ryy	2ryy	2ryy	.	.	2ryy	2ryy
.	.	.	16d/	.	16b\J	.	.	.	.	.	.	.	.
8G\	.	.	16d/	.	8b\J	.	.	.	.	.	.	.	.
.	.	.	16d/JJ	.	.	.	.	.	.	.	.	.	.
!	!	!	!	!	!LO:LB:g=original	!	!	!	!	!	!	!	!
8c\	4_ 2_	.	16d/LL	.	16gg\LL	.	.	.	.	.	.	.	.
.	.	.	16d/	.	16ff#\	.	.	.	.	.	.	.	.
8c\J	.	.	16d/	.	16ff#\	.	.	.	.	.	.	.	.
.	.	.	16d/JJ	.	16aa\JJ	.	.	.	.	.	.	.	.
*	*	*	*Xtremolo	*	*	*	*	*	*	*	*	*	*
=95	=95	=95	=95	=95	=95	=95	=95	=95	=95	=95	=95	=95	=95
8B\L	6	.	8d/L	.	8gg\L	.	2ryy	2ryy	2ryy	.	.	2ryy	2ryy
8G\	.	.	8b/	.	32gg\LL	.	.	.	.	.	.	.	.
.	.	.	.	.	32ff#\	.	.	.	.	.	.	.	.
.	.	.	.	.	32ee\	.	.	.	.	.	.	.	.
.	.	.	.	.	32dd\JJJ	.	.	.	.	.	.	.	.
8G\	.	.	8b/	.	8dd\L	.	.	.	.	.	.	.	.
8G\J	.	.	8b/J	.	8dd\J	.	.	.	.	.	.	.	.
=96	=96	=96	=96	=96	=96	=96	=96	=96	=96	=96	=96	=96	=96
*tremolo	*	*	*tremolo	*	*	*	*	*	*	*	*	*	*
8F#\L	6 5	.	8a/L	.	8.dd\L	.	2ryy	2ryy	2ryy	1r	.	2ryy	2ryy
8F#\	.	.	8a/	.	.	.	.	.	.	.	.	.	.
.	.	.	.	.	16ee\Jk	.	.	.	.	.	.	.	.
8F#\	.	.	8a/	.	16dd\LL	.	.	.	.	.	.	.	.
.	.	.	.	.	16ff#\	.	.	.	.	.	.	.	.
8F#\J	.	.	8a/J	.	16aa\	.	.	.	.	.	.	.	.
.	.	.	.	.	16cc\JJ	.	.	.	.	.	.	.	.
*Xtremolo	*	*	*Xtremolo	*	*	*	*	*	*	*	*	*	*
=97	=97	=97	=97	=97	=97	=97	=97	=97	=97	=97	=97	=97	=97
8G\L	.	.	8b/L	.	16b\LL	.	2ryy	2ryy	2ryy	.	.	2ryy	2ryy
.	.	.	.	.	16dd\	.	.	.	.	.	.	.	.
8C/	6	.	16cc/L	.	16ee\	.	.	.	.	.	.	.	.
.	.	.	16a/JJ	.	16cc\JJ	.	.	.	.	.	.	.	.
8D/	4	.	8g/L	.	8b/L	.	.	.	.	.	.	.	.
8DD/J	3	.	8f#/J	.	8a/J	.	.	.	.	.	.	.	.
=98	=98	=98	=98	=98	=98	=98	=98	=98	=98	=98	=98	=98	=98
8GG/L	.	.	8g/L	.	8b\L	.	2ryy	2ryy	2ryy	2r	.	2ryy	2ryy
8D/J	.	.	16b/L	.	16dd\L	.	.	.	.	.	.	.	.
.	.	.	16a/JJ	.	16cc\JJ	.	.	.	.	.	.	.	.
4GG/	.	.	4g/	.	8b\	.	.	.	.	.	.	.	.
.	.	.	.	.	8r	.	.	.	.	.	.	.	.
==	==	==	==	==	==	==	==	==	==	==	==	==	==
*-	*-	*-	*-	*-	*-	*-	*-	*-	*-	*-	*-	*-	*-
!!!system-decoration: [(g1)][(g2)][(g3)]<s9>
!!!RDF**kern: > = above
!!!RDF**kern: < = below
!!!RDF**dynam: p = "p:", fontstyle="bold-italic"
!!!ENC: Marcin Jachim
!!!END: 2020-07-07
!!!ENC: Andrzej Kubiczek
!!!END: 2021-11-21
